!!!COM: Bach, Johann Sebastian
!!!CDT: 1685/3//-1750/7/28/
!!!OTL@@DE: Nun ruhen alle Waelder
!!!OTL@EN:  Now rests all the forest
!!!AGN: 4-Part Chorale
!!!SCT: BH 117
!!!SCT: BWV 244
**harm	**root	**kern	**kern	**kern	**kern
!	!	!bass	!tenor	!alto	!soprno
*	*Iorgan	*Iorgan	*Iorgan	*Iorgan	*Iorgan
*M4/4	*M4/4	*M4/4	*M4/4	*M4/4	*M4/4
*met(c)	*met(c)	*met(c)	*met(c)	*met(c)	*met(c)
*MM60	*MM60	*MM60	*MM60	*MM60	*MM60
*k[b-e-a-d-g-c-]	*k[b-e-a-d-g-c-]	*k[b-e-a-d-g-c-]	*k[b-e-a-d-g-c-]	*k[b-e-a-d-g-c-]	*k[b-e-a-d-g-c-]
*G-:	*G-:	*G-:	*G-:	*G-:	*G-:
I	4AA-	4G-	4d-	4g-	4b-
=1	=1	=1	=1	=1	=1
IV	4DD-	8c-	4c-	4e-	4g-
.	.	8B-	.	.	.
viiob	4GG	4A-	4c-	4f	4a-
I	4AA-	4.G-	8d-	8g-	8b-
.	.	.	8c-	8a-	8cc-
I	4AA-	.	8B-	4b-	4dd-
.	.	8F	8A-	.	.
=2	=2	=2	=2	=2	=2
IV7b	4DD-	4E-	4G-	4b-	2cc-
V7b	4EE-	4F	4d-	4a-	.
I;	4AA-;	4G-;	4d-;	4g-;	4b-;
vi	4FF	4E-	4e-	4g-	8b-
.	.	.	.	.	8cc-
=3	=3	=3	=3	=3	=3
Ib	4AA-	8BB-	4d-	8g-	4dd-
.	.	8AA-	.	8f	.
Ib	4AA-	8BB-	4d-	8g-	4dd-
.	.	8C-	.	8e-	.
V	4EE-	8D-	4d-	8f	4a-
.	.	8C-	.	8e-	.
iii	4CC	4BB-	4F	4d-	4b-
=4	=4	=4	=4	=4	=4
viib/V	2DD	2E-	8G-	4d-	2g-
.	.	.	8F	.	.
.	.	.	4G-	4c	.
V;	4EE-;	4D-;	4A-;	4d-;	4f;
V7d	4EE-	4C-y	8F	4A-	4d-
.	.	.	8E-	.	.
=5	=5	=5	=5	=5	=5
Ib	4AA-	4BB-	4D-	4d-	4g-
ii	4BB-	4AA-	8E-	4c-	4a-
.	.	.	8F	.	.
I	4AA-	8GG-	4G-	8B-	4b-
.	.	8AA-	.	8c-	.
Ib	4AA-	8BB-	4G-	4d-	4b-
.	.	8C-	.	.	.
=6	=6	=6	=6	=6	=6
V;	2.EE-;	2.D-;	2.F;	2.d-;	2.a-;
Vb/vi	4CC	4D	4B-	4f	4b-
!!linebreak: 2
=7	=7	=7	=7	=7	=7
vi	4FF	4E-	8B-	4e-	4g-
.	.	.	8c-	.	.
Vb	4EE-	4F	8B-	4d-	4a-
.	.	.	8A-	.	.
I	4AA-	4G-	8G-	4d-	8b-
.	.	.	8A-	.	8cc-
V7b/II	4FF	4G	4B-	4e-	4dd-
=8	=8	=8	=8	=8	=8
ii	2BB-	4A-	8A-	8e-	2cc-
.	.	.	8B-	8d-	.
.	.	4AA-	8c-	8e-	.
.	.	.	8d-	8f	.
VI;	4FF;	4E-;	4e-;	4g;	4b-;
vi	4FF	4E-	4e-	4g-	8b-
.	.	.	.	.	8cc-
=9	=9	=9	=9	=9	=9
Vb	4EE-	4F	8d-	4a-	4dd-
.	.	.	8c-	.	.
I	4AA-	4G-	4B-	8g-	4dd-
.	.	.	.	8f	.
V7d/V	4BB-	8G-	4c	4e-	4a-
.	.	8F	.	.	.
III	4CC	8E-	4F	4f	4b-
.	.	8D	.	.	.
=10	=10	=10	=10	=10	=10
vi	4FF	8E-	2B-	4f	2g-
.	.	8F	.	.	.
vib	4FF	8G-	.	4e-	.
.	.	8A-	.	.	.
III;	4CC;	4B-;	4B-;	4d;	4f;
iii	4CC	4BB-	4B-	4d-	4d-
=11	=11	=11	=11	=11	=11
vi7	8FF	4E-	8B-	8d-	4g-
IVc	8DD-	.	8c-	8e-	.
iii7c	8CC	4F	8B-	8d-	4a-
viio	8GG	.	8A-	8c-	.
I	4AA-	8G-	4G-	8B-	4b-
.	.	8F	.	8d-	.
IVb	4DD-	8E-	4G-	8e-	4cc-
.	.	8D-	.	8f	.
=12	=12	=12	=12	=12	=12
IV7	4DD-	4C-	4e-	4g-	4b-
V	4EE-	4D-	8A-	4f	4a-
.	.	.	16B-	.	.
.	.	.	16c-	.	.
I;	4AA-;	4GG-;	4B-;	4d-;	4g-;
==	==	==	==	==	==
*-	*-	*-	*-	*-	*-
!!chor2scor: -l 2 -s 0.6 -o %b.pmx
!!!YEC: Copyright 1994, David Huron
!!!YEC: Changes/Additions 2001 by Craig Stuart Sapp
!!!YEN: United States of America
!!!SMA: 371 Bach Chorales, edited by Ludwig Erk, C.F. Peters
!!!PDT: 1850, 1865
!!!ONB: Harmony and Root analysis done manually
